X:1
T:Welcome the Spirit In
T:Welcome the Spirit In
T:Edmund Simon Lorenz
T:Anna Chichester, 1892
T:Public Domain Courtesy of the Cyber Hymnal™
T:Public Domain Courtesy of the Cyber Hymnal™
C:Edmund Simon Lorenz
Z:Public Domain
Z:Courtesy of the Cyber Hymnal™
%%score ( 1 2 ) ( 3 4 )
L:1/8
Q:1/4=90
M:6/8
K:G
V:1 treble 
V:2 treble 
V:3 bass 
V:4 bass 
V:1
 [DB][DB][DB] [DB][DB][DB] | [CA][CG][CE] [B,D]2 [DG] | [FA][GB][Ac] [FA]2 z | %3
w: 1.~O- pen your heart to the|Spir- it’s en- treat- ing;|Wel- come Him in!|
w: 2.~Life all di- vine doth the|Spir- it now prof- fer;|Wel- come Him in!|
w: 3.~Fruits more than gold- en this|Spir- it will yield you;|Wel- come Him in!|
w: 4.~He is a friend that a-|bid- eth for- ev- er;|Wel- come Him in!|
 [GB][Ac][Bd] [GB]2 z | [DB][DB][DB] [DB][DB][DB] | [CA][CG][CE] [B,D]2 D | %6
w: Wel- come Him in!|List to His wings at your|heart­’s win- dows beat- ing,|
w: Wel- come Him in!|Life that’s e- ter- nal— ac-|cept now His of- fer,|
w: Wel- come Him in!|Love, peace and joy when His|grace shall have sealed you|
w: Wel- come Him in!|He brings a com- fort that|fail- eth you ne- ver,|
 [EA][EA][EA] [DG]2 [CF] | [B,G]3- [B,G]2 z ||"^Refrain" [Bd][Bd][Bd] [Bd][Ac][GB] | %9
w: Wel- come the Spir- it|in! *||
w: Wel- come the Spir- it|in! *|Wel- come Him in, He has|
w: Wel- come the Spir- it|in! *||
w: Wel- come the Spir- it|in! *||
 [Ac][Ac][Ac] [FA]2 z | [GB][GB][GB] [GB][DA][DG] | [^CA][CA][CA] D2 z | %12
w: |||
w: bless- ing un- told;|Wel- come Him in, peace your|heart shall en- fold;|
w: |||
w: |||
 [DG][DG][DG] [DA][DA][DA] | [DB][Ec][=Fd] [Ec]2 z | [DB][CA][B,G] [DB]2 [CA] | [B,G]3- [B,G]2 z |] %16
w: ||||
w: Wel- come Him in, love your|spir- it shall hold,|Wel- come the Spir- it|in! *|
w: ||||
w: ||||
V:2
 x6 | x6 | x6 | x6 | x6 | x6 | x6 | x6 || x6 | x6 | x6 | x3 D2 x | x6 | x6 | x6 | x6 |] %16
V:3
 G,G,G, G,G,G, | [C,E,][C,E,][C,G,] [G,,G,]2 [G,,B,] | [D,D][D,D][D,D] [D,D]2 z | %3
 [G,D][G,D][G,D] [G,D]2 z | G,G,G, G,G,G, | [C,E,][C,E,][C,G,] [G,,G,]2 [G,,B,] | %6
 [C,C][C,C][C,C] [D,B,]2 [D,A,] | [G,,G,]3- [G,,G,]2 z || [G,D][G,D][G,D] [G,D][G,D][G,D] | %9
 [D,D][D,D][D,D] [D,D]2 z | [G,D][G,D][G,D] [G,,D][A,,F,][B,,G,] | %11
 [A,,E,][A,,F,][A,,G,] [D,F,]2 C, | [B,,G,][B,,G,][B,,G,] [D,F,][D,F,][D,F,] | G,G,G, [C,G,]2 z | %14
 [D,G,][D,G,][D,G,] [D,F,]2 [D,F,] | [G,,G,]3- [G,,G,]2 z |] %16
V:4
 G,G,G, G,G,G, | x6 | x6 | x6 | G,G,G, G,G,G, | x6 | x6 | x6 || x6 | x6 | x6 | x6 | x6 | %13
 G,G,G, x3 | x6 | x6 |] %16

